!! 00000] TT[WS
!!!OTL: Da kuqi
!!!ARE: Asia, China, Shanxi Qinyuan
!! Ethnic Group: Han
!! WII, 150 (2)
!!!SCT: J0628
!!!YEM: Copyright 1995, estate of Helmut Schaffrath.
**kern
*ICvox
*Ivox
*M4/4
*k[f#]
*G:
{8.dd
16dd
8dd
8dd
8ee
16dd
16b
8.dd
16b
=1
2dd
8dd
8ee
8dd
16ee
16ee
=2
16dd
16ee
16dd
16b
16a
16b
16e
16g
2a}
=3
{8a
16a
16b
8dd
8dd
8dd
8dd
8ee
8b
=4
16a
16b
16a
16g
8g
8f#
2e}
=5
{8g
16f#
16e
8g
8b
4.a
16b
16a
=6
8g
16f#
16e
8d
16e
16g
2d}
=7
{8g
16f#
16e
8g
8b
4.a
16b
16a
=8
8g
16f#
16e
8d
16e
16g
2d}
==
!!!AGN: Xiaodiao. Qingge, Aisu
!!!ONB: ESAC (Essen Associative Code) Database: CHINA
!!!AMT: simple quadruple
!!!AIN: vox
!!!EED: Helmut Schaffrath
!!!EEV: 1.0
*-
